X:271
T:Waiting on Vasser
C:David Grisman
N:Transcribed by Mike Stangeland
L:1/8
Q:1/4=250
M:4/4
K:G
z8 |: G,"Em"A, B,E DE GB | "B7"AF ^D=D FB3 | "Em"G,A, B,E DE GB | AG (3EGE "C"C4 | 
"G"G,A, B,E DE GB | "D"AB dA Be z2 |1 (3fa"Bm"f df ed (3"Em"BdB | GB AG (3"Am"EGE C2 :|2 (3faf "Bm"df ed (3"Em"BdB | 
GB AG (3"Am"EGE C2 | (3"Bm"faf df ed (3"Em"BdB | GB AG (3"Am"EGE C2 | (3"Bm"faf df ed (3"Em"BdB | 
GB AG (3"Am"EGE C2 |: z2 "D"A,B, DE DF | AB AB d=f ef | f=f ed Bd BA | FB AF (3EFE D2 | 
"Bm"zB, A,B, DE DE | FE D^G ED AE | D^G ED FE DE | B,E DB, A,B, A,B, | "C"CB, CE2E zD | 
GF GB zB zB | dB d2 [ee][ee] [ee][ee] | ee dA cd cA | "G"dB AB AG ED | (3GED B,E DB, A,B, | 
G,B, A,D B,E GB |1 A"G"^A BA =AG ED :|2 A"G"^A BA "B7"BF ^DB, | 
 

